X: 7
T: Catharsis
R: reel
M: 4/4
L: 1/8
K: Bmin
FBBA FBBA|FABc dBcA|FAAE FAEA|fede dBcA|
FBBA FBBA|FABc dBce|fede dcBA|1 FBBA B2 B2:|2 FBBA Bcde||
fBBe BBdB|BEcE Bcde|fAAe AEcE|AEcE Bcde|
fBBe BBdB|BEcE Bcde|fede dcBA|1 FBBA Bcde:|2 FBBA B4||


Tune 703	Setting 13767

